X: 39218
T: Ta Cashen Ersooyl Dys Yn 'Aarkey
R: slip jig
M: 9/8
K: Bminor
|:F|B2 c dcB c2 F|B/c/dB cAc e2 f|B2 c dcB c2 e|f/g/af ec^A B2:|
A|d2 e fed c2 A|dAe fd/e/f a2 g|fde fed cc/B/A|FBd cB^A B2 A|
d2 e f2 d cBA|dAe f2 d a2 g|dAe fed cba|fB/c/d cB^A B2||

